assets/img/alpine_long.svg

<svg height="134" viewBox="0 0 702 134" width="702" xmlns="http://www.w3.org/2000/svg"><g fill="none" fill-rule="evenodd"><path d="m236.145 101 4.015-12.98h25.465l4.015 12.98h18.535l-23.485-73.81h-22.385l-24.86 73.81zm25.465-26.015h-16.995l8.635-27.005zm55.44 26.015v-75.9h-17.6v75.9zm36.3 26.29-.001-28.571.054988.0502c.552464.5104 1.143472.968 1.773024 1.3728l.317988.198c2.676667 1.613333 6.013333 2.42 10.01 2.42 4.583333 0 8.8825-1.136667 12.8975-3.41 4.015-2.2733333 7.26-5.555 9.735-9.845s3.7125-9.4783333 3.7125-15.565c0-6.1233333-1.219167-11.33-3.6575-15.62s-5.600833-7.5716667-9.4875-9.845-7.993333-3.41-12.32-3.41c-3.263333 0-6.343333.8341667-9.24 2.5025-2.0856 1.2012-3.881328 2.929872-5.387184 5.186016l-.216816.332484-1.436-6.261h-14.355v80.465zm9.35-40.59c-1.686667 0-3.245-.3116667-4.675-.935s-2.566667-1.485-3.41-2.585-1.265-2.3833333-1.265-3.85h-.001v-8.91l.0065-.3780333c.047667-1.6238445.405167-3.0617889 1.0725-4.3138334l.1595-.2856333c.825-1.4116667 1.970833-2.5025 3.4375-3.2725s3.135-1.155 5.005-1.155c2.31 0 4.299167.5316667 5.9675 1.595s2.960833 2.5666667 3.8775 4.51 1.375 4.2166667 1.375 6.82c0 3.08-.614167 5.555-1.8425 7.425s-2.731667 3.2266667-4.51 4.07-3.510833 1.265-5.1975 1.265zm53.625-46.86c3.226667 0 5.775-.8525 7.645-2.5575s2.805-4.1158333 2.805-7.2325c0-3.0433333-.935-5.4725-2.805-7.2875s-4.418333-2.7225-7.645-2.7225c-3.336667 0-5.9125.9075-7.7275 2.7225s-2.7225 4.2441667-2.7225 7.2875c0 3.1166667.9075 5.5275 2.7225 7.2325s4.390833 2.5575 7.7275 2.5575zm8.8 61.16v-54.505h-17.6v54.505zm37.84 0v-22.825l.003125-.5599432c.041667-3.6992424.5-6.7242424 1.375-9.075l.134375-.3475568c1.008333-2.5116667 2.355833-4.3358333 4.0425-5.4725s3.538333-1.705 5.555-1.705c1.98 0 3.666667.6875 5.06 2.0625s2.09 3.4925 2.09 6.3525v31.57h17.71v-31.57c0-4.73-.696667-8.9283333-2.09-12.595s-3.565833-6.545-6.5175-8.635-6.755833-3.135-11.4125-3.135c-4.07 0-7.709167 1.1366667-10.9175 3.41-1.991379 1.4110345-3.721427 3.3235434-5.190143 5.7375268l-.151357.2534732-1.781-7.641h-15.51v54.175zm74.855 1.76c4.473333 0 8.424167-.806667 11.8525-2.42 3.428333-1.6133333 6.215-3.795 8.36-6.545s3.4925-5.8116667 4.0425-9.185h-17.49c-.476667 1.43-1.32 2.475-2.53 3.135s-2.621667.99-4.235.99c-1.98 0-3.620833-.4675-4.9225-1.4025s-2.2825-2.2458333-2.9425-3.9325-.99-3.685-.99-5.995l.001.11h32.559c.868421-3.8905263 1.037535-7.6740997.507341-11.3507202l-.094841-.6117798c-.641667-3.8683333-1.998333-7.3425-4.07-10.4225s-4.794167-5.5275-8.1675-7.3425-7.333333-2.7225-11.88-2.7225c-4.583333 0-8.873333 1.1366667-12.87 3.41s-7.223333 5.5458333-9.68 9.8175-3.685 9.3958333-3.685 15.3725 1.2375 11.1466667 3.7125 15.51 5.710833 7.7183333 9.7075 10.065c3.996667 2.346667 8.268333 3.52 12.815 3.52zm8.359-34.155h-17.135l.001178-.0151556c.133629-1.5041481.434296-2.8412592.902-4.0113333l.145322-.3460111c.751667-1.705 1.815-3.0066667 3.19-3.905s2.9975-1.3475 4.8675-1.3475c1.686667 0 3.070833.3391667 4.1525 1.0175s1.915833 1.5766667 2.5025 2.695.980833 2.3375 1.1825 3.6575c.100833.66.162708 1.3154167.185625 1.96625zm34.596 33.385c3.483333 0 6.361667-1.054167 8.635-3.1625 2.273333-2.1083333 3.41-4.7941667 3.41-8.0575s-1.136667-5.9766667-3.41-8.14-5.151667-3.245-8.635-3.245-6.315833 1.0816667-8.4975 3.245-3.2725 4.8766667-3.2725 8.14c0 3.2266667 1.090833 5.9033333 3.2725 8.03 2.181667 2.126667 5.014167 3.19 8.4975 3.19zm33.605-62.15c3.226667 0 5.775-.8525 7.645-2.5575s2.805-4.1158333 2.805-7.2325c0-3.0433333-.935-5.4725-2.805-7.2875s-4.418333-2.7225-7.645-2.7225-5.793333.9075-7.7 2.7225-2.86 4.2441667-2.86 7.2875c0 3.1166667.953333 5.5275 2.86 7.2325s4.473333 2.5575 7.7 2.5575zm-10.505 89.375c6.416667 0 11.275-1.750833 14.575-5.2525s4.95-9.414167 4.95-17.7375v-59.62h-17.71v59.29c0 3.153333-.559167 5.261667-1.6775 6.325s-2.814167 1.595-5.0875 1.595c-1.76 0-3.666667-.256667-5.72-.77s-3.868333-1.081667-5.445-1.705v15.125c2.53.696667 5.041667 1.329167 7.535 1.8975s5.353333.8525 8.58.8525zm60.665-26.455c4.546667 0 8.616667-.843333 12.21-2.53 3.593333-1.6866667 6.425833-3.8775 8.4975-6.5725s3.1075-5.5458333 3.1075-8.5525c0-3.3-1.063333-6.05-3.19-8.25s-5.041667-4.0333333-8.745-5.5l-14.96-5.995c-2.31-.8066667-3.465-1.9066667-3.465-3.3 0-1.0266667.55-1.8516667 1.65-2.475s2.603333-.935 4.51-.935c2.31 0 3.96.4308333 4.95 1.2925s1.485 1.8791667 1.485 3.0525h16.115c-.036667-5.2066667-1.998333-9.4966667-5.885-12.87s-9.441667-5.06-16.665-5.06c-7.7 0-13.768333 1.485-18.205 4.455s-6.655 6.8566667-6.655 11.66c0 3.41 1.054167 6.3525 3.1625 8.8275s5.105833 4.5191667 8.9925 6.1325l13.145 5.115c1.393333.55 2.42 1.1 3.08 1.65s.99 1.2833333.99 2.2c0 .6966667-.238333 1.3475-.715 1.9525s-1.191667 1.0908333-2.145 1.4575-2.163333.55-3.63.55c-2.42 0-4.335833-.3666667-5.7475-1.1s-2.154167-2.0533333-2.2275-3.96h-15.895c-.036667 4.2166667 1.054167 7.7091667 3.2725 10.4775s5.3075 4.84 9.2675 6.215 8.525 2.0625 13.695 2.0625z" fill="#2d3441" fill-rule="nonzero"/><g transform="translate(0 12)"><path d="m149.520377 10.3027772 39.8721 39.6972228-39.8721 39.6972228-39.872101-39.6972228z" fill="#77c1d2"/><path d="m49.8401255 10.3027772 82.6598485 82.297305h-79.7442011l-42.78774779-42.6000822z" fill="#2d3441"/></g></g></svg>

<?xml version="1.0" encoding="UTF-8"?>
<svg width="702px" height="134px" viewBox="0 0 702 134" version="1.1" xmlns="http://www.w3.org/2000/svg" xmlns:xlink="http://www.w3.org/1999/xlink">
    <title>Custom Preset 4 Copy 5</title>
    <g id="Custom-Preset-4-Copy-5" stroke="none" stroke-width="1" fill="none" fill-rule="evenodd">
        <path d="M236.145,101 L240.16,88.02 L265.625,88.02 L269.64,101 L288.175,101 L264.69,27.19 L242.305,27.19 L217.445,101 L236.145,101 Z M261.61,74.985 L244.615,74.985 L253.25,47.98 L261.61,74.985 Z M317.05,101 L317.05,25.1 L299.45,25.1 L299.45,101 L317.05,101 Z M353.35,127.29 L353.349,98.719 L353.403988,98.7692 C353.956452,99.2796 354.54746,99.7372 355.177012,100.142 L355.495,100.34 C358.171667,101.953333 361.508333,102.76 365.505,102.76 C370.088333,102.76 374.3875,101.623333 378.4025,99.35 C382.4175,97.0766667 385.6625,93.795 388.1375,89.505 C390.6125,85.215 391.85,80.0266667 391.85,73.94 C391.85,67.8166667 390.630833,62.61 388.1925,58.32 C385.754167,54.03 382.591667,50.7483333 378.705,48.475 C374.818333,46.2016667 370.711667,45.065 366.385,45.065 C363.121667,45.065 360.041667,45.8991667 357.145,47.5675 C355.0594,48.7687 353.263672,50.497372 351.757816,52.753516 L351.541,53.086 L350.105,46.825 L335.75,46.825 L335.75,127.29 L353.35,127.29 Z M362.7,86.7 C361.013333,86.7 359.455,86.3883333 358.025,85.765 C356.595,85.1416667 355.458333,84.28 354.615,83.18 C353.771667,82.08 353.35,80.7966667 353.35,79.33 L353.349,79.33 L353.349,70.42 L353.3555,70.0419667 C353.403167,68.4181222 353.760667,66.9801778 354.428,65.7281333 L354.5875,65.4425 C355.4125,64.0308333 356.558333,62.94 358.025,62.17 C359.491667,61.4 361.16,61.015 363.03,61.015 C365.34,61.015 367.329167,61.5466667 368.9975,62.61 C370.665833,63.6733333 371.958333,65.1766667 372.875,67.12 C373.791667,69.0633333 374.25,71.3366667 374.25,73.94 C374.25,77.02 373.635833,79.495 372.4075,81.365 C371.179167,83.235 369.675833,84.5916667 367.8975,85.435 C366.119167,86.2783333 364.386667,86.7 362.7,86.7 Z M416.325,39.84 C419.551667,39.84 422.1,38.9875 423.97,37.2825 C425.84,35.5775 426.775,33.1666667 426.775,30.05 C426.775,27.0066667 425.84,24.5775 423.97,22.7625 C422.1,20.9475 419.551667,20.04 416.325,20.04 C412.988333,20.04 410.4125,20.9475 408.5975,22.7625 C406.7825,24.5775 405.875,27.0066667 405.875,30.05 C405.875,33.1666667 406.7825,35.5775 408.5975,37.2825 C410.4125,38.9875 412.988333,39.84 416.325,39.84 Z M425.125,101 L425.125,46.495 L407.525,46.495 L407.525,101 L425.125,101 Z M462.965,101 L462.965,78.175 L462.968125,77.6150568 C463.009792,73.9158144 463.468125,70.8908144 464.343125,68.5400568 L464.4775,68.1925 C465.485833,65.6808333 466.833333,63.8566667 468.52,62.72 C470.206667,61.5833333 472.058333,61.015 474.075,61.015 C476.055,61.015 477.741667,61.7025 479.135,63.0775 C480.528333,64.4525 481.225,66.57 481.225,69.43 L481.225,69.43 L481.225,101 L498.935,101 L498.935,69.43 C498.935,64.7 498.238333,60.5016667 496.845,56.835 C495.451667,53.1683333 493.279167,50.29 490.3275,48.2 C487.375833,46.11 483.571667,45.065 478.915,45.065 C474.845,45.065 471.205833,46.2016667 467.9975,48.475 C466.006121,49.8860345 464.276073,51.7985434 462.807357,54.2125268 L462.656,54.466 L460.875,46.825 L445.365,46.825 L445.365,101 L462.965,101 Z M537.82,102.76 C542.293333,102.76 546.244167,101.953333 549.6725,100.34 C553.100833,98.7266667 555.8875,96.545 558.0325,93.795 C560.1775,91.045 561.525,87.9833333 562.075,84.61 L562.075,84.61 L544.585,84.61 C544.108333,86.04 543.265,87.085 542.055,87.745 C540.845,88.405 539.433333,88.735 537.82,88.735 C535.84,88.735 534.199167,88.2675 532.8975,87.3325 C531.595833,86.3975 530.615,85.0866667 529.955,83.4 C529.295,81.7133333 528.965,79.715 528.965,77.405 L528.966,77.515 L561.525,77.515 C562.393421,73.6244737 562.562535,69.8409003 562.032341,66.1642798 L561.9375,65.5525 C561.295833,61.6841667 559.939167,58.21 557.8675,55.13 C555.795833,52.05 553.073333,49.6025 549.7,47.7875 C546.326667,45.9725 542.366667,45.065 537.82,45.065 C533.236667,45.065 528.946667,46.2016667 524.95,48.475 C520.953333,50.7483333 517.726667,54.0208333 515.27,58.2925 C512.813333,62.5641667 511.585,67.6883333 511.585,73.665 C511.585,79.6416667 512.8225,84.8116667 515.2975,89.175 C517.7725,93.5383333 521.008333,96.8933333 525.005,99.24 C529.001667,101.586667 533.273333,102.76 537.82,102.76 Z M546.179,68.605 L529.044,68.605 L529.045178,68.5898444 C529.178807,67.0856963 529.479474,65.7485852 529.947178,64.5785111 L530.0925,64.2325 C530.844167,62.5275 531.9075,61.2258333 533.2825,60.3275 C534.6575,59.4291667 536.28,58.98 538.15,58.98 C539.836667,58.98 541.220833,59.3191667 542.3025,59.9975 C543.384167,60.6758333 544.218333,61.5741667 544.805,62.6925 C545.391667,63.8108333 545.785833,65.03 545.9875,66.35 C546.088333,67.01 546.150208,67.6654167 546.173125,68.31625 L546.179,68.605 Z M580.775,101.99 C584.258333,101.99 587.136667,100.935833 589.41,98.8275 C591.683333,96.7191667 592.82,94.0333333 592.82,90.77 C592.82,87.5066667 591.683333,84.7933333 589.41,82.63 C587.136667,80.4666667 584.258333,79.385 580.775,79.385 C577.291667,79.385 574.459167,80.4666667 572.2775,82.63 C570.095833,84.7933333 569.005,87.5066667 569.005,90.77 C569.005,93.9966667 570.095833,96.6733333 572.2775,98.8 C574.459167,100.926667 577.291667,101.99 580.775,101.99 Z M614.38,39.84 C617.606667,39.84 620.155,38.9875 622.025,37.2825 C623.895,35.5775 624.83,33.1666667 624.83,30.05 C624.83,27.0066667 623.895,24.5775 622.025,22.7625 C620.155,20.9475 617.606667,20.04 614.38,20.04 C611.153333,20.04 608.586667,20.9475 606.68,22.7625 C604.773333,24.5775 603.82,27.0066667 603.82,30.05 C603.82,33.1666667 604.773333,35.5775 606.68,37.2825 C608.586667,38.9875 611.153333,39.84 614.38,39.84 Z M603.875,129.215 C610.291667,129.215 615.15,127.464167 618.45,123.9625 C621.75,120.460833 623.4,114.548333 623.4,106.225 L623.4,106.225 L623.4,46.605 L605.69,46.605 L605.69,105.895 C605.69,109.048333 605.130833,111.156667 604.0125,112.22 C602.894167,113.283333 601.198333,113.815 598.925,113.815 C597.165,113.815 595.258333,113.558333 593.205,113.045 C591.151667,112.531667 589.336667,111.963333 587.76,111.34 L587.76,111.34 L587.76,126.465 C590.29,127.161667 592.801667,127.794167 595.295,128.3625 C597.788333,128.930833 600.648333,129.215 603.875,129.215 Z M664.54,102.76 C669.086667,102.76 673.156667,101.916667 676.75,100.23 C680.343333,98.5433333 683.175833,96.3525 685.2475,93.6575 C687.319167,90.9625 688.355,88.1116667 688.355,85.105 C688.355,81.805 687.291667,79.055 685.165,76.855 C683.038333,74.655 680.123333,72.8216667 676.42,71.355 L676.42,71.355 L661.46,65.36 C659.15,64.5533333 657.995,63.4533333 657.995,62.06 C657.995,61.0333333 658.545,60.2083333 659.645,59.585 C660.745,58.9616667 662.248333,58.65 664.155,58.65 C666.465,58.65 668.115,59.0808333 669.105,59.9425 C670.095,60.8041667 670.59,61.8216667 670.59,62.995 L670.59,62.995 L686.705,62.995 C686.668333,57.7883333 684.706667,53.4983333 680.82,50.125 C676.933333,46.7516667 671.378333,45.065 664.155,45.065 C656.455,45.065 650.386667,46.55 645.95,49.52 C641.513333,52.49 639.295,56.3766667 639.295,61.18 C639.295,64.59 640.349167,67.5325 642.4575,70.0075 C644.565833,72.4825 647.563333,74.5266667 651.45,76.14 L651.45,76.14 L664.595,81.255 C665.988333,81.805 667.015,82.355 667.675,82.905 C668.335,83.455 668.665,84.1883333 668.665,85.105 C668.665,85.8016667 668.426667,86.4525 667.95,87.0575 C667.473333,87.6625 666.758333,88.1483333 665.805,88.515 C664.851667,88.8816667 663.641667,89.065 662.175,89.065 C659.755,89.065 657.839167,88.6983333 656.4275,87.965 C655.015833,87.2316667 654.273333,85.9116667 654.2,84.005 L654.2,84.005 L638.305,84.005 C638.268333,88.2216667 639.359167,91.7141667 641.5775,94.4825 C643.795833,97.2508333 646.885,99.3225 650.845,100.6975 C654.805,102.0725 659.37,102.76 664.54,102.76 Z" id="Alpine.js" fill="#2D3441" fill-rule="nonzero"></path>
        <g id="Group-4" transform="translate(0.000000, 12.000000)">
            <polygon id="Path" fill="#77C1D2" points="149.520377 10.3027772 189.392477 50 149.520377 89.6972228 109.648276 50"></polygon>
            <polygon id="Path" fill="#2D3441" points="49.8401255 10.3027772 132.499974 92.6000822 52.7557729 92.6000822 9.96802511 50"></polygon>
        </g>
    </g>
</svg>
